!!!!SEGMENT: pl-wtm--r-1140-1--003_dobrzynski-ignacy-feliks--quartetto-op-7-adagio.krn
!!!cenid: 18xx:1810
!!!COM: Dobrzyński, Ignacy Feliks
!!!COM-rismid: pe30020642
!!!CDT: 1807/02/15-1867/10/09
!!!CNT: Polish
!!!OTL: Quartetto op. 7 – Adagio
!!!PDT:
!!!AGN: Secular; String quartet
!!!SMS-siglum: PL-Wtm
!!!SMS-shelfmark: R 1140/1
!!!SMS-shelfwork: 001-003 M
!!!SMS-variant:
!!!SMS-altvar:
!!!NIFC-rismid: 1001056519
!!!system-decoration: [(s1,s2,s3,s4)]
**kern	**dynam	**kern	**dynam	**kern	**dynam	**kern	**dynam
*part4	*part4	*part3	*part3	*part2	*part2	*part1	*part1
*staff4	*	*staff3	*	*staff2	*	*staff1	*
*I"[Violoncello.]	*	*I"[Viola]	*	*I"[Violini.]	*	*I"[Violini.]	*
*I'vlc	*	*I'vla	*	*I'vl II	*	*I'vl I	*
*clefF4	*	*clefC3	*	*clefG2	*	*clefG2	*
*k[]	*	*k[]	*	*k[]	*	*k[]	*
*C:	*	*C:	*	*C:	*	*C:	*
*M2/4	*	*M2/4	*	*M2/4	*	*M2/4	*
=1	=1	=1	=1	=1	=1	=1	=1
!	!	!	!	!	!	!LO:TX:a:Bi:t=Adagio.\nmolt’ espreſsivo.:rj:problem:dotyczy wszystkich głosów	!
(>4G\	p	2r	.	2r	.	2r	.
8E\L	.	.	.	.	.	.	.
8C\J)	.	.	.	.	.	.	.
=2	=2	=2	=2	=2	=2	=2	=2
(>8.GG/L	<	2r	.	2r	.	2r	.
16AA/Jk	.	.	.	.	.	.	.
16.GG/LL	[ >	.	.	.	.	.	.
32FF/K	.	.	.	.	.	.	.
16.DD/	.	.	.	.	.	.	.
32EE/JJk	]]	.	.	.	.	.	.
=3	=3	=3	=3	=3	=3	=3	=3
*	*	*tremolo	*	*tremolo	*	*	*
!	!	!LO:TX:t=P:problem:4 kropki i łuk nad tremolo	!	!LO:TX:t=P:problem:4 kropki i łuk nad tremolo	!	!	!
16CC/LL)	.	16E/LL	p	16c/LL	.	(<4g/	p
16C/	.	16E/	.	16c/	.	.	.
16C/	.	16E/	.	16c/	.	.	.
16C/JJ	.	16E/JJ	.	16c/JJ	.	.	.
*tremolo	*	*	*	*	*	*	*
!	!	!LO:TX:t=P:problem:4 kropki i łuk nad tremolo	!	!LO:TX:t=P:problem:4 kropki i łuk nad tremolo	!	!	!
16C/LL	.	16E/LL	.	16G/LL	.	8e/L	.
16C/	.	16E/	.	16G/	.	.	.
16C/	.	16E/	.	16G/	.	8c/J)	.
16C/JJ	.	16E/JJ	.	16G/JJ	.	.	.
*	*	*	*	*Xtremolo	*	*	*
=4	=4	=4	=4	=4	=4	=4	=4
16C/LL	.	16E/LL	<	16G/LL	<	(>8.ee\L	<
16C/	.	16E/	.	16G/	.	.	.
16C/	.	16E/	.	16G#X/	.	.	.
16C/JJ	.	16E/	.	16G#/JJ	.	16b\Jk	.
*Xtremolo	*	*	*	*	*	*	*
*	*	*	*	*tremolo	*	*	*
16C/LL	.	16E/	[ >	16A/LL	[ >	16dd\LL	[
16C/	.	16E/	.	16A/	.	16cc\	>
16C#X/	.	16E/	.	16A/	.	16e\	.
16C#/JJ	.	16E/JJ	]]	16A/JJ	]]	16a\JJ)	]]
*	*	*	*	*Xtremolo	*	*	*
=5	=5	=5	=5	=5	=5	=5	=5
*	*	*	*	*tremolo	*	*	*
!	!	!	!	!LO:TX:t=P:problem:8 kropek i łuk nad tremolo	!	!	!
4D/	.	16D/LL	.	16A/LL	.	(<4g/	.
.	.	16D/	.	16A/	.	.	.
.	.	16D/	.	16A/	.	.	.
.	.	16D/	.	16A/	.	.	.
8AA/L	.	16D/	.	16A/	.	8f/)	.
.	.	16D/	.	16A/	.	.	.
8FF/J	.	16D/	.	16A/	.	8r	.
.	.	16D/JJ	.	16A/JJ	.	.	.
=6	=6	=6	=6	=6	=6	=6	=6
16DD/LL	.	16F/LL	<	16d/LL	<	4f/	<
16D/	.	16F/	.	16d/	.	.	.
16D/	.	16F/	.	16d/	.	.	.
16D/JJ	.	16F/	.	16d/	.	.	.
*tremolo	*	*	*	*	*	*	*
16C/LL	.	16F/	.	16d/	.	4A-X/	[[
16C/	.	16F/	.	16d/	.	.	.
16C/	.	16F/	.	16d/	.	.	.
16C/JJ	.	16F/JJ	[[	16d/JJ	[[	.	.
=7	=7	=7	=7	=7	=7	=7	=7
16BB/LL	.	16F/LL	f	16d/LL	f >	4G/	f
16BB/	.	16F/	.	16d/	.	.	.
16BB/	.	16F/	.	16d/	.	.	.
16BB/	.	16F/JJ	>	16d/	.	.	.
16BB/	.	16G/LL	.	16d/	.	[>4ff\	>]
16BB/	.	16G/	.	16d/	.	.	.
16BB/	.	16G/	.	16d/	.	.	.
16BB/JJ	.	16G/JJ	]]	16d/JJ	]]	.	.
*Xtremolo	*	*Xtremolo	*	*Xtremolo	*	*	*
=8	=8	=8	=8	=8	=8	=8	=8
!	!	!	!	!	!	!LO:TUP:a	!
(<2BB/	.	[>2G/	p	(>2d/	p	(>24ff\LL]	p
.	.	.	.	.	.	24cc#X\	.
.	.	.	.	.	.	24dd\JJ	.
*	*	*	*	*	*	*Xtuplet	*
.	.	.	.	.	.	24ff\LL	.
.	.	.	.	.	.	24a#X\	.
.	.	.	.	.	.	24b\JJ	.
.	.	.	.	.	.	24dd\LL	.
.	.	.	.	.	.	24f#X\	.
.	.	.	.	.	.	24g\JJ	.
.	.	.	.	.	.	32a#/LLL	.
.	.	.	.	.	.	32d/	.
.	.	.	.	.	.	32g/	.
.	.	.	.	.	.	32fn/JJJ	.
*	*	*	*	*	*	*tuplet	*
=9	=9	=9	=9	=9	=9	=9	=9
16C/LL)	.	16G/LL]	.	16c/LL)	.	(<4d#X/)	.
16C/	.	16G/	.	16c/	.	.	.
16C/	.	16G/	.	16c/	.	.	.
16C/JJ	.	16G/JJ	.	16c/JJ	.	.	.
16C\LL	.	16G/LL	.	16c/LL	.	8e/)	.
16c\	.	16e/	.	16e/	.	.	.
16B\	.	16d/	.	16e/	.	8r	.
16A\JJ	.	16c/JJ	.	16e/JJ	.	.	.
=10	=10	=10	=10	=10	=10	=10	=10
*tremolo	*	*tremolo	*	*tremolo	*	*	*
!LO:TX:t=P:problem:8 kropek i łuk nad tremolo	!	!LO:TX:t=P:problem:8 kropek i łuk nad tremolo	!	!LO:TX:t=P:problem:8 kropek i łuk nad tremolo	!	!	!
16G#X\LL	.	16B/LL	.	16e/LL	.	(>4ee\	.
16G#\	.	16B/	.	16e/	.	.	.
16G#\	.	16B/	.	16e/	.	.	.
16G#\	.	16B/	.	16e/	.	.	.
16G#\	.	16B/	.	16e/	.	8dd\L	.
16G#\	.	16B/	.	16e/	.	.	.
16G#\	.	16B/	.	16e/	.	8b\J)	.
16G#\JJ	.	16B/JJ	.	16e/JJ	.	.	.
*Xtremolo	*	*Xtremolo	*	*Xtremolo	*	*	*
!!LO:LB:g=original
=11	=11	=11	=11	=11	=11	=11	=11
4A\	.	(>8A\L	.	4e/	.	(>8cc\L	.
.	.	[>8c\J	.	.	.	16.ccc\L	.
.	.	.	.	.	.	32gg#X\JJk	.
!	!	!	!	!	!	!LO:TUP:a	!
4F\	.	16c\LL]	.	4f/	.	(>24bb\LL)	.
.	.	.	.	.	.	24aa\	.
.	.	16c#X\J	.	.	.	.	.
.	.	.	.	.	.	24ee\JJ	.
!	!	!	!	!	!	!LO:TUP:a	!
.	.	8d\J	.	.	.	24ff\LL	.
.	.	.	.	.	.	24dd\	.
.	.	.	.	.	.	24aa\JJ	.
=12	=12	=12	=12	=12	=12	=12	=12
.	.	.	.	.	.	(<8qqaa/)	.
16G\LL	.	16c\LL)	.	16e/LL	.	(>4.cc\)	.
16G\	.	16e\	.	16g/	.	.	.
!LO:TX:a:t=P:diminuendolike accent:problem	!	!	!	!LO:TX:a:t=P:diminuendolike accent:problem	!	!	!
16A-X^>\	.	16e-X^>\	.	16f#X^>/	.	.	.
16A-\JJ	.	16e-\JJ	.	16f#/JJ	.	.	.
!LO:TX:t=P:problem:mixed beam	!	!	!	!	!	!	!
16G\LL	.	16en\LL	.	16g/LL	.	.	.
16G\	.	16e\	.	16g/	.	.	.
16GG/	.	16B\	.	16fn/	.	16.ee\LL	.
16GG/JJ	.	16B\JJ	.	16f/JJ	.	.	.
.	.	.	.	.	.	32dd\JJk)	.
=13	=13	=13	=13	=13	=13	=13	=13
!LO:TX:a:t=P:W źródle łuk kończy się za nutą:problem	!	!	!	!	!	!	!
(>4C\	.	(<32c/LLL	.	(<32e/LLL	.	4cc\	p
.	.	32G/)	.	32G/)	.	.	.
.	.	32c'</	p	32e/	p	.	.
.	.	32c'</JJJ	.	32e/JJJ	.	.	.
*	*	*rep	*	*rep	*	*	*
.	.	(<32c/LLL	.	(<32e/LLL	.	.	.
.	.	32G/)	.	32G/)	.	.	.
.	.	32c'</	.	32e/	.	.	.
.	.	32c'</JJJ	.	32e/JJJ	.	.	.
*	*	*Xrep	*	*Xrep	*	*	*
*	*	*rep	*	*rep	*	*	*
8E\L	.	(<32c/LLL	.	(<32e/LLL	.	4r	.
.	.	32G/)	.	32G/)	.	.	.
.	.	32c'</	.	32e/	.	.	.
.	.	32c'</JJJ	.	32e/JJJ	.	.	.
*	*	*Xrep	*	*Xrep	*	*	*
*	*	*rep	*	*rep	*	*	*
8C\J)	.	(<32c/LLL	.	(<32e/LLL	.	.	.
.	.	32G/)	.	32G/)	.	.	.
.	.	32c'</	.	32e/	.	.	.
.	.	32c'</JJJ	.	32e/JJJ	.	.	.
*	*	*Xrep	*	*Xrep	*	*	*
=14	=14	=14	=14	=14	=14	=14	=14
4GG/	.	(<32B/LLL	.	(<32f/LLL	.	(>4gg\	.
.	.	32G/)	.	32G/)	.	.	.
.	.	32B'</	.	32f'</	.	.	.
.	.	32B'</JJJ	.	32f'</JJJ	.	.	.
*	*	*rep	*	*rep	*	*	*
.	.	(<32B/LLL	.	(<32f/LLL	.	.	.
.	.	32G/)	.	32G/)	.	.	.
.	.	32B'</	.	32f'</	.	.	.
.	.	32B'</JJJ	.	32f'</JJJ	.	.	.
*	*	*Xrep	*	*Xrep	*	*	*
*	*	*rep	*	*rep	*	*	*
4r	.	(<32B/LLL	.	(<32f/LLL	.	8ff\L	.
.	.	32G/)	.	32G/)	.	.	.
.	.	32B'</	.	32f'</	.	.	.
.	.	32B'</JJJ	.	32f'</JJJ	.	.	.
*	*	*Xrep	*	*Xrep	*	*	*
*	*	*rep	*	*rep	*	*	*
.	.	(<32B/LLL	.	(<32f/LLL	.	8dd\J	.
.	.	32G/)	.	32G/)	.	.	.
.	.	32B'</	.	32f'</	.	.	.
.	.	32B'</JJJ	.	32f'</JJJ	.	.	.
*	*	*Xrep	*	*Xrep	*	*	*
=15	=15	=15	=15	=15	=15	=15	=15
(>4C\	.	(<32c/LLL	.	(<32e/LLL	.	4cc\)	.
.	.	32G/)	.	32G/)	.	.	.
.	.	32c'</	.	32e'</	.	.	.
.	.	32c'</JJJ	.	32e'</JJJ	.	.	.
*	*	*rep	*	*rep	*	*	*
.	.	(<32c/LLL	.	(<32e/LLL	.	.	.
.	.	32G/)	.	32G/)	.	.	.
.	.	32c'</	.	32e'</	.	.	.
.	.	32c'</JJJ	.	32e'</JJJ	.	.	.
*	*	*Xrep	*	*Xrep	*	*	*
*	*	*rep	*	*rep	*	*	*
8E\L	.	(<32c/LLL	.	(<32e/LLL	.	4r	.
.	.	32G/)	.	32G/)	.	.	.
.	.	32c'</	.	32e'</	.	.	.
.	.	32c'</JJJ	.	32e'</JJJ	.	.	.
*	*	*Xrep	*	*Xrep	*	*	*
*	*	*rep	*	*rep	*	*	*
8C\J)	.	(<32c/LLL	.	(<32e/LLL	.	.	.
.	.	32G/)	.	32G/)	.	.	.
.	.	32c'</	.	32e'</	.	.	.
.	.	32c'</JJJ	.	32e'</JJJ	.	.	.
*	*	*Xrep	*	*Xrep	*	*	*
=16	=16	=16	=16	=16	=16	=16	=16
4GG/	.	(<32B/LLL	.	(<32f/LLL	.	(16gg\LL	<
.	.	32G/)	.	32G/)	.	.	.
.	.	32B'</	.	32f'</	.	16gg#X\	.
.	.	32B'</JJJ	.	32f'</JJJ	.	.	.
*	*	*rep	*	*rep	*	*	*
.	.	(<32B/LLL	.	(<32f/LLL	.	16bb\	.
.	.	32G/)	.	32G/)	.	.	.
.	.	32B'</	.	32f'</	.	16aa\JJ)	[
.	.	32B'</JJJ	.	32f'</JJJ	.	.	.
*	*	*Xrep	*	*Xrep	*	*	*
*	*	*rep	*	*rep	*	*	*
!	!	!	!	!	!	!LO:TX:a:t=P:diminuendolike accent:problem	!
!	!	!	!	!	!	!LO:TUP:a	!
4r	.	(<32B/LLL	.	(<32f/LLL	.	(>&(>24aa^<\LL	.
.	.	32G/)	.	32G/)	.	.	.
.	.	.	.	.	.	24ggn\	.
.	.	32B'</	.	32f'</	.	.	.
.	.	.	.	.	.	24ff\JJ&)	.
.	.	32B'</JJJ	.	32f'</JJJ	.	.	.
*	*	*Xrep	*	*Xrep	*	*	*
*	*	*rep	*	*rep	*	*	*
!	!	!	!	!	!	!LO:TX:a:t=P:diminuendolike accent:problem	!
!	!	!	!	!	!	!LO:TUP:a	!
.	.	(<32B/LLL	.	(<32f/LLL	.	&(>24ff^<\LL	.
.	.	32G/)	.	32G/)	.	.	.
.	.	.	.	.	.	24ee\	.
.	.	32B'</	.	32f'</	.	.	.
.	.	.	.	.	.	24dd\JJ&))	.
.	.	32B'</JJJ	.	32f'</JJJ	.	.	.
*	*	*Xrep	*	*Xrep	*	*	*
=17	=17	=17	=17	=17	=17	=17	=17
(>4C\	.	(<32c/LLL	.	(<32e/LLL	.	4cc\	.
.	.	32G/)	.	32G/)	.	.	.
.	.	32c/	.	32e'</	.	.	.
.	.	32c/JJJ	.	32e'</JJJ	.	.	.
*	*	*rep	*	*rep	*	*	*
.	.	(<32c/LLL	.	(<32e/LLL	.	.	.
.	.	32G/)	.	32G/)	.	.	.
.	.	32c/	.	32e'</	.	.	.
.	.	32c/JJJ	.	32e'</JJJ	.	.	.
*	*	*Xrep	*	*Xrep	*	*	*
*	*	*rep	*	*rep	*	*	*
8E\L	.	(<32c/LLL	.	(<32e/LLL	.	4r	.
.	.	32G/)	.	32G/)	.	.	.
.	.	32c/	.	32e'</	.	.	.
.	.	32c/JJJ	.	32e'</JJJ	.	.	.
*	*	*Xrep	*	*Xrep	*	*	*
*	*	*rep	*	*rep	*	*	*
8C\J)	.	(<32c/LLL	.	(<32e/LLL	.	.	.
.	.	32G/)	.	32G/)	.	.	.
.	.	32c/	.	32e'</	.	.	.
.	.	32c/JJJ	.	32e'</JJJ	.	.	.
*	*	*Xrep	*	*Xrep	*	*	*
=18	=18	=18	=18	=18	=18	=18	=18
(>4BB/	.	(<32G#X/LLL	.	(<32d/LLL	.	(>4eee\	<
.	.	32E/)	.	32e/)	.	.	.
.	.	32G#'</	.	32d'</	.	.	.
.	.	32G#'</JJJ	.	32d'</JJJ	.	.	.
*	*	*rep	*	*rep	*	*	*
.	.	(<32G#/LLL	<	(<32d/LLL	<	.	.
.	.	32E/)	.	32e/)	.	.	.
.	.	32G#'</	.	32d'</	.	.	.
.	.	32G#'</JJJ	.	32d'</JJJ	.	.	.
*	*	*Xrep	*	*Xrep	*	*	*
*	*	*rep	*	*rep	*	*	*
4E\)	.	(<32G#/LLL	.	(<32d/LLL	.	8ddd\L	.
.	.	32E/)	.	32e/)	.	.	.
.	.	32G#'</	.	32d'</	.	.	.
.	.	32G#'</JJJ	.	32d'</JJJ	.	.	.
*	*	*Xrep	*	*Xrep	*	*	*
*	*	*rep	*	*rep	*	*	*
.	.	(<32G#/LLL	.	(<32d/LLL	.	8bb\J)	.
.	.	32E/)	.	32e/)	.	.	.
.	.	32G#'</	.	32d'</	.	.	.
.	.	32G#'</JJJ	[[	32d'</JJJ	[[	.	[[
*	*	*Xrep	*	*Xrep	*	*	*
=19	=19	=19	=19	=19	=19	=19	=19
8AA/	.	8A/	.	8c/	.	(>16ccc\LL	.
.	.	.	.	.	.	16gg#X^<\	.
8r	.	8r	.	8r	.	16aa\	.
.	.	.	.	.	.	16dd#X^<\JJ	.
16r	.	16r	.	(>16r	.	16ee\LL	>
!	!LO:HP:a	!	!	!	!	!	!
(<16GG#X/LL	>	(>16d\KL	.	16f/KL	>	16b\	.
16AA/	.	8c\J)	.	8e/J)	]]	16cc\	.
16C/JJ)	]]	.	.	.	.	16a\JJ)	]
=20	=20	=20	=20	=20	=20	=20	=20
2D\	.	16B/LL	.	(>16d/LL	.	(>[<4g/	.
.	.	16A#X/	.	16c#X/	.	.	.
.	.	16c/	.	16e/	.	.	.
.	.	16B/JJ	.	16d/JJ	.	.	.
!	!	!	!	!LO:TX:a:t=P:w źródle łuk kończy się na kresce taktowej:problem	!	!	!
.	.	8An/L	.	4cn/)	.	16g/LL]	.
.	.	.	.	.	.	16f#X/	.
.	.	8G#X/J	.	.	.	16b^</	.
!	!	!	!	!	!	!LO:TX:a:t=P:w źródle łuk kończy się na kresce taktowej:problem	!
.	.	.	.	.	.	16a/JJ)	.
!!LO:LB:g=original
=21	=21	=21	=21	=21	=21	=21	=21
(<4GG/	.	16G/KL	.	16B/KL	.	4g/	.
.	.	8B/	<	8g/	<	.	.
.	.	8B/	.	8g/	.	.	.
8BB/L	.	.	.	.	.	4r	.
.	.	8B/	.	8g/	.	.	.
16.D/L	.	.	.	.	.	.	.
.	.	(<16B/Jk	[[	(<16g/Jk	[[	.	.
32G/JJk)	.	.	.	.	.	.	.
=22	=22	=22	=22	=22	=22	=22	=22
!	!	!	!	!	!	!LO:TX:b:Bi:t=dol&colon;	!
(>8G#X\L	.	16c\KL)	>	16f#X/KL)	>	(>4dd^<\	.
.	.	8c\	.	8f#/	.	.	.
8A\J	.	.	.	.	.	.	.
.	.	8c\	]	8f#/	]	.	.
4D\)	.	.	.	.	.	8cc\L	.
.	.	8c\	.	8f#/	.	.	.
.	.	.	.	.	.	8a\J	.
.	.	(>16c\Jk	.	(<16f#/Jk	.	.	.
=23	=23	=23	=23	=23	=23	=23	=23
(<4GG/	.	16B\KL)	.	16g/KL)	.	4g/)	.
.	.	8B\	.	8g/	.	.	.
.	.	8B\	<	8g/	<	.	.
8BB/L	.	.	.	.	.	4r	.
.	.	8B\	.	8g/	.	.	.
16.D/L	.	.	.	.	.	.	.
.	.	(>16B\Jk	[[	(<16g/Jk	[[	.	.
!LO:TX:t=P:problem:w źródle kółko na kresce taktowej	!	!	!	!	!	!	!
32G/JJk)	.	.	.	.	.	.	.
=24	=24	=24	=24	=24	=24	=24	=24
(>8G#X\L	.	16c\KL)	>	16f#X/KL)	>	(>8dd\L	.
.	.	8c\	.	8f#/	.	.	.
8A\J	.	.	.	.	.	16.ff#X^<\L	.
.	.	8c\	]	8f#/	]	.	.
.	.	.	.	.	.	32ee\JJk)	.
!	!	!	!	!	!	!LO:TUP:a	!
4D\)	.	.	.	.	.	(>&(>24ee^<\LL	.
.	.	.	.	.	.	24dd\	.
.	.	8c\	.	8f#/	.	.	.
.	.	.	.	.	.	24cc\JJ&)	.
!	!	!	!	!	!	!LO:TUP:a	!
.	.	.	.	.	.	&(>24cc^<\LL	.
.	.	.	.	.	.	24b\	.
.	.	(>16c\Jk	.	(<16f#/Jk	.	.	.
.	.	.	.	.	.	24a\JJ&))	.
=25	=25	=25	=25	=25	=25	=25	=25
(<4GG/	.	16B\KL)	.	16g/KL)	.	4g/	.
.	.	8B\	<	8g/	<	.	.
.	.	8B\	.	8g/	.	.	.
8BB/L	.	.	.	.	.	4r	.
.	.	8B\	.	8g/	.	.	.
8D/J)	.	.	.	.	.	.	.
.	.	[>16B\Jk	[[	(<16g/Jk	[[	.	.
=26	=26	=26	=26	=26	=26	=26	=26
*	*	*rep	*	*	*	*	*
!	!	!LO:TX:a:t=P:łuki nie wyświetlają się:problem	!	!	!	!	!
4G\	.	16B\KL]	f	16fn/KL)	f	(>4ggg\	f
.	.	8B\	.	8f/	.	.	.
.	.	8B\	.	8f/	.	.	.
4GG/	.	.	.	.	.	8fffn\L	.
.	.	8B\	.	8f 8G/	.	.	.
.	.	.	.	.	.	8ddd\J)	.
!	!	!	!	!LO:S:s=1:note:problem:note-level slur	!	!	!
.	.	(>16B\Jk	.	(<16fJk [<16G/	.	.	.
*	*	*Xrep	*	*	*	*	*
=27	=27	=27	=27	=27	=27	=27	=27
!	!	!	!	!LO:S:s=1:note:problem:note-level slur	!	!	!
8C/	.	8c\)	.	8e) 8G/]	.	(>32ccc\LLL	.
.	.	.	.	.	.	32ddd\	.
.	.	.	.	.	.	32ccc\	.
.	.	.	.	.	.	32bb\JJJ	.
!	!	!	!	!	!	!LO:TX:b:Bi:t=decres_:problem:dynamics with extention lines	!
!	!	!	!	!	!	!	!LO:HP:b:Bi:t=decres:ext=ud
8r	.	8r	.	8r	.	32ccc\LLL	>
.	.	.	.	.	.	32ddd\	.
.	.	.	.	.	.	32eee'>\)	.
.	.	.	.	.	.	(>&(>32bb^<\JJJ	.
8r	.	8r	.	8r	.	32ccc\LLL&)	.
.	.	.	.	.	.	&(>32gg#X^<\	.
.	.	.	.	.	.	32aa\&)	.
.	.	.	.	.	.	&(>32dd#X^<\JJJ	.
8C/	.	8c\	p	8e/	p	32ee\LLL&)	.
.	.	.	.	.	.	&(>32b\	.
.	.	.	.	.	.	32cc\	.
.	.	.	.	.	.	32a\JJJ&))	]
=28	=28	=28	=28	=28	=28	=28	=28
2D\	.	(>16B/LL	.	(>16d/LL	.	[<4g/	p
.	.	16A#X/	.	16c#X/	.	.	.
.	.	16An/	.	16cn/	.	.	.
.	.	16G/JJ	.	16B/JJ	.	.	.
!	!	!LO:TX:a:t=P:w źródle łuk kończy się na kresce taktowej:problem	!	!LO:TX:a:t=P:w źródle łuk kończy się na kresce taktowej:problem	!	!	!
.	.	4A/)	.	4c/)	.	32g/LLL]	.
.	.	.	.	.	.	(<32f#X/	.
.	.	.	.	.	.	32ee/	.
.	.	.	.	.	.	32dd/JJJ	.
.	.	.	.	.	.	32b/LLL	.
.	.	.	.	.	.	32cc/	.
.	.	.	.	.	.	32e/	.
.	.	.	.	.	.	32f#/JJJ)	.
=29	=29	=29	=29	=29	=29	=29	=29
(<4GG/	.	16G/LL	.	16B/LL	.	4g/	.
.	.	16B/	<	16g/	<	.	.
.	.	16B/	.	16g/	.	.	.
.	.	16B/JJ	.	16g/JJ	.	.	.
*	*	*tremolo	*	*tremolo	*	*	*
8BB/L	.	16B/LL	.	16g/LL	.	4r	.
.	.	16B/	.	16g/	.	.	.
16.D/L	.	16B/	.	16g/	.	.	.
.	.	16B/JJ	[[	16g/JJ	[[	.	.
32G/JJk)	.	.	.	.	.	.	.
=30	=30	=30	=30	=30	=30	=30	=30
(>8G#X\L	.	16c\LL	>	16f#X/LL	>	[>4ddd\	>
.	.	16c\	.	16f#/	.	.	.
8A\J	.	16c\	.	16f#/	.	.	.
.	.	16c\	.	16f#/	.	.	.
4D\)	.	16c\	]	16f#/	.	32ddd\LLL]	]
.	.	.	.	.	.	(>32ccc\	.
.	.	16c\	.	16f#/	.	32aa\	.
.	.	.	.	.	.	32ff#X\JJJ	.
.	.	16c\	.	16f#/	.	32dd\LLL	.
.	.	.	.	.	.	32ee\	.
.	.	16c\JJ	.	16f#/JJ	.	32a\	.
.	.	.	.	.	]]	32dd\JJJ)	.
*	*	*	*	*Xtremolo	*	*	*
!!LO:PB:g=original
=31	=31	=31	=31	=31	=31	=31	=31
(<4GG/	.	16B/LL	<	16g/LL	<	4b\	.
.	.	16B/	.	16g/	.	.	.
.	.	16B/	.	16g/	.	.	.
.	.	16B/	.	16g/JJ	.	.	.
*	*	*	*	*tremolo	*	*	*
8BB/L	.	16B/	.	16g/LL	.	4r	.
.	.	16B/	.	16g/	.	.	.
16.D/L	.	16B/	.	16g/	.	.	.
.	.	16B/JJ	[[	16g/JJ	[[	.	.
32G/JJk)	.	.	.	.	.	.	.
=32	=32	=32	=32	=32	=32	=32	=32
!	!	!	!	!LO:TX:a:t=P:diminuendolike accent:problem	!	!LO:TX:a:t=P:diminuendolike accent:problem	!
!	!	!LO:TX:a:t=P:diminuendolike accent:problem	!	!	!	!	!
(>8G#X\L	.	16c^<\LL	.	16f#X^</LL	.	(>[>8ddd^<\L	.
.	.	16c\	.	16f#/	.	.	.
8A\J	.	16c\	.	16f#/	.	32ddd\LL]	.
.	.	.	.	.	.	32ccc#X\	.
.	.	16c\	<	16f#/	<	32cccn\	<
.	.	.	.	.	.	32bb\JJJ)	.
4D\)	.	16c\	.	16f#/	.	(>32aa\LLL	.
.	.	.	.	.	.	32gg\	.
.	.	16c\	.	16f#/	.	32ff#X\	.
.	.	.	.	.	.	32ee\JJJ	.
.	.	16c\	[	16f#/	[	32dd\LLL	[
.	.	.	.	.	.	32cc\	.
.	.	16c\JJ	.	16f#/JJ	.	32b\	.
.	.	.	.	.	.	32a\JJJ)	.
*	*	*Xtremolo	*	*Xtremolo	*	*	*
=33	=33	=33	=33	=33	=33	=33	=33
!LO:TX:t=P:problem:mixed beam	!	!	!	!	!	!	!
16GG/LL	.	16B\LL	f	16g/LL	f	4g\	f
16G\	.	16d\	.	16g 16B/	.	.	.
16G\	.	16d\	.	16g 16B/	.	.	.
16G\JJ	.	16d\JJ	.	16gJJ 16B/	.	.	.
*tremolo	*	*tremolo	*	*tremolo	*	*	*
16E\LL	.	16e\LL	.	16gLL 16B/	.	[>4bb\	.
16E\	.	16e\	.	16g 16B/	.	.	.
16E\	.	16e\	.	16g 16B/	.	.	.
16E\JJ	.	16e\JJ	.	16gJJ 16B/	.	.	.
=34	=34	=34	=34	=34	=34	=34	=34
16BB/LL	.	16d#X\LL	.	16aLL 16B/	.	16bb\LL]	.
16BB/	.	16d#\	.	16a 16B/	.	(>32bb'>\L	.
.	.	.	.	.	.	32ccc#X'>\JJJ	.
16BB/	.	16d#\	.	16a 16B/	.	32ddd#X'>\LLL	.
.	.	.	.	.	.	32eee'>\	.
!	!	!	!	!	!	!LO:SIC:v:s=32fff#'>\	!
16BB/	.	16d#\JJ	.	16a 16B/	.	32fff'>\	.
.	.	.	.	.	.	32ggg'>\JJJ	.
*	*	*Xtremolo	*	*	*	*	*
16BB/	.	16d#\LL	.	16a 16B/	.	8aaa\L)	.
16BB/	.	16d#\	.	16a 16B/	.	.	.
16BB/	.	16f#X\	.	16a 16B/	.	(>8ddd#\J	.
16BB/JJ	.	16f#\JJ	.	16aJJ 16B/	.	.	.
*	*	*	*	*Xtremolo	*	*	*
=35	=35	=35	=35	=35	=35	=35	=35
!	!	!	!	!	!	!LO:TX:b:Bi:t=cres_:problem:dynamics with extention lines	!
!	!	!	!	!	!	!	!LO:HP:b:Bi:t=cres:ext=ud
!	!	!	!	!LO:TX:b:Bi:t=cres_:problem:dynamics with extention lines	!	!	!
!	!	!	!	!	!LO:HP:b:Bi:t=cres:ext=ud	!	!
!	!	!LO:TX:b:Bi:t=cres_:problem:dynamics with extention lines	!	!	!	!	!
!	!	!	!LO:HP:b:Bi:t=cres:ext=ud	!	!	!	!
16C/LL	.	16e\LL	<	16gLL 16B/	<	8eee\)	<
16C/	.	16e\	.	16g/	.	.	.
16C/	.	16c\	.	16e/	.	4ggg\	.
16C/JJ	.	16c\JJ	.	16e/JJ	.	.	.
*Xtremolo	*	*	*	*	*	*	*
*	*	*	*	*tremolo	*	*	*
16C/LL	.	16c\LL	.	16e/LL	.	.	.
16C/	.	16c\	.	16e/	.	.	.
16C#X/	.	16B-X\	.	16e/	.	(>[>8gg\	.
16C#/JJ	.	16B-\JJ	[	16e/JJ	[	.	[
*	*	*	*	*Xtremolo	*	*	*
=36	=36	=36	=36	=36	=36	=36	=36
*	*	*tremolo	*	*	*	*	*
16D\LL	.	16B-X/LL	f	16d/LL	f	4.gg\]	f
16D\	.	16B-/	.	16d/	.	.	.
16E-X\	.	16B-/	.	16c#X/	.	.	.
16E-\JJ	.	16B-/	.	16c#/JJ	.	.	.
*	*	*	*	*tremolo	*	*	*
16En\LL	.	16B-/	>	16d-X/LL	>	.	.
16E\	.	16B-/	.	16d-/	.	.	.
16Fn\	.	16B-/	.	16d-/	.	8ffn\)	>
16F\JJ	.	16B-/JJ	.	16d-/JJ	.	.	.
*	*	*	*	*Xtremolo	*	*	*
=37	=37	=37	=37	=37	=37	=37	=37
*tremolo	*	*	*	*tremolo	*	*	*
16G-X\LL	.	16B-X/LL	p	16d-X/LL	p	(>4ee\	p
16G-\	.	16B-/	.	16d-/	.	.	.
16G-\	.	16B-/	.	16d-/	.	.	.
16G-\JJ	.	16B-/JJ	.	16d-/JJ	.	.	.
16F#X\LL	.	16A/LL	pp	16c/LL	pp	8ee-X'>\L	pp
16F#\	.	16A/	.	16c/	.	.	.
16F#\	.	16A/	.	16c/	.	[>8dd'>\J	.
16F#\JJ	.	16A/JJ	.	16c/JJ	.	.	.
*Xtremolo	*	*Xtremolo	*	*Xtremolo	*	*	*
=38	=38	=38	=38	=38	=38	=38	=38
(>4G\	.	(>4Bn/	<	(>16B/KL	.	8dd\L]	<
.	.	.	.	8g/	>	.	.
.	.	.	.	.	.	8dd#X\J	[ >
.	.	.	.	16fn/Jk	]	.	.
4C\)	.	16c/LL	[ >	4e/)	.	16ee\LL	.
.	.	16G#X/	.	.	.	16b\	.
.	.	16A/	.	.	.	16cc\	]
.	.	16c/JJ)	]]	.	.	16a\JJ)	.
=39	=39	=39	=39	=39	=39	=39	=39
[>4D\	.	(>16B/LL	<	(>16d/LL	.	(<4g/	<
.	.	16A#X/	.	16c#X/	.	.	.
.	.	16c/	.	16e/	.	.	.
.	.	16B/JJ	.	16d/JJ	.	.	.
!LO:TX:t=P:problem:mixed beam	!	!	!	!	!	!	!
16D\LL]	.	4An/)	[ >]]	4cn/)	.	4f#Xt>/)	[ >
(>16E-X\	.	.	.	.	.	.	.
16D\	.	.	.	.	.	.	.
16DD/JJ)	.	.	.	.	.	.	]
.	.	.	.	.	.	(<16qqe/LL	.
.	.	.	.	.	.	16qqf#/JJ)	.
=40	=40	=40	=40	=40	=40	=40	=40
8GG/	.	8G/	.	8B/	.	8g/	.
8r	.	16r	.	16r	.	(>16bb\LL	.
.	.	(>16cc\	.	(>16ee-X\	.	16ff#X\JJ	.
4r	.	16b\LL	.	16dd\LL	.	16gg\LL	.
.	.	16a\	.	16cc\	.	16dd#X\	.
.	.	16g#X\	.	16b\	.	16ee\	.
.	.	16gn\JJ	.	16b-X\JJ	.	16cc#X\JJ	.
!!LO:LB:g=original
=41	=41	=41	=41	=41	=41	=41	=41
8r	.	16f#X\LL)	.	16a/LL)	.	16dd\LL)	.
.	.	(>16fn\	.	(>16a-X/	.	(>16b\	.
16r	.	16e\	.	16g/	.	16cc\	.
(>16E\	.	16G#X\JJ	.	16d/JJ	.	[>16b^<\JJ	.
8AA/L	.	8Gn/L	.	8c#X/L	.	16b\LL]	.
.	.	.	.	.	.	16a\	.
8D/J	.	8F#X/J	.	8cn/J	.	16b^<\	.
.	.	.	.	.	.	16a\JJ	.
=42	=42	=42	=42	=42	=42	=42	=42
8GG/)	.	8G/)	.	8B/)	.	16g\LL)	.
.	.	.	.	.	.	(>16bb\	.
8r	.	16r	.	16r	.	16ff#X\	.
.	.	16b\	.	16ddo\	.	16gg\JJ	.
4r	.	16f#X\LL	.	16a/LL	.	16dd#X\LL	.
.	.	16g\	.	16b/	.	16ee\	.
.	.	16d#X\	.	16f#X/	.	16cc\	.
!	!	!	!	!LO:TX:t=P:problem:kółko nad kreską taktową	!	!	!
!	!	!	!	!	!	!LO:TX:a:t=P:w źródle łuk kończy się na kresce taktowej:problem	!
.	.	16e\JJ	.	[<16g/JJ	.	16b\JJ	.
=43	=43	=43	=43	=43	=43	=43	=43
4r	.	16c/LL	<	4g/_<	<	16a#X\LL)	<
.	.	16B/	.	.	.	(16b\	.
.	.	16A#X/	.	.	.	16cc#X\	.
.	.	16B/JJ	.	.	.	16dd\JJ	[
16r	.	16c/LL	[ >	16g/LL]	[ >	16ee\LL	>
!LO:TX:a:t=P:W źródle łuk kończy się na kresce taktowej:problem	!	!	!	!	!	!	!
(>16BB\LL	.	16G#X/J	.	16fn/	.	16dd\	.
16C\	.	8A#/J	]]	16e/	.	16ccn\	.
!	!	!	!	!LO:SIC:v:s=16d/JJ	!	!	!
16D\JJ)	.	.	.	16c/JJ	]]	16f#X\JJ)	]
=44	=44	=44	=44	=44	=44	=44	=44
[<2GG/	.	16r	.	(<2c/	p	(>2a/	p
.	.	(>16D/LL	p	.	.	.	.
.	.	16E-X^>/	.	.	.	.	.
.	.	16D/JJ	.	.	.	.	.
.	.	16En^>/LL	.	.	.	.	.
.	.	16D/	.	.	.	.	.
.	.	16F#X^>/	.	.	.	.	.
.	.	16D/JJ	.	.	.	.	.
=45	=45	=45	=45	=45	=45	=45	=45
4GG/]	.	4G/)	.	4B/)	.	4g/)	.
4r	.	4r	.	4r	.	4r	.
=46	=46	=46	=46	=46	=46	=46	=46
2r	.	(>8.dd\L	p	2r	.	2r	.
!	!	!LO:TX:b:Bi:t=ma espres&colon;	!	!	!	!	!
.	.	16cc#X\Jk	.	.	.	.	.
.	.	16ee\LL	.	.	.	.	.
.	.	16dd\	.	.	.	.	.
.	.	16b\	.	.	.	.	.
!	!	!LO:TX:t=P:problem:w źródle kwadrat na kresce taktowej	!	!	!	!	!
.	.	16g\JJ)	.	.	.	.	.
=47	=47	=47	=47	=47	=47	=47	=47
!LO:TX:a:t=P:diminuendolike accent:problem	!	!	!	!	!	!LO:TX:a:t=P:diminuendolike accent:problem	!
4.B^<\	.	(>4a-X\	>	4.d/	.	4.fn^</	.
.	.	16qqg^>/LL	]	.	.	.	.
.	.	16qqb-X/	.	.	.	.	.
.	.	16qqa-/	.	.	.	.	.
.	.	16qqg/JJ	.	.	.	.	.
.	.	8g\	.	.	.	.	.
8r	.	8r)	.	8r	.	8r	.
=48	=48	=48	=48	=48	=48	=48	=48
!	!	!	!	!LO:TX:b:Bi:t=espres	!	!	!
2r	.	2r	.	(>8.ff\L	.	2r	.
.	.	.	.	16ee\Jk	.	.	.
.	.	.	.	16gg\LL	.	.	.
.	.	.	.	16ff\	.	.	.
.	.	.	.	16dd\	.	.	.
.	.	.	.	16cc\JJ)	.	.	.
=49	=49	=49	=49	=49	=49	=49	=49
4.d\	.	4.f\	.	(>4cc\	.	4.a-X/	.
.	.	.	.	&(<16qqb/LL	.	.	.
.	.	.	.	16qqdd/	.	.	.
.	.	.	.	16qqcc/	.	.	.
.	.	.	.	16qqb/JJ&)	.	.	.
.	.	.	.	8b\)	.	.	.
8r	.	8r	.	8r	.	8r	.
=50	=50	=50	=50	=50	=50	=50	=50
!	!	!	!	!	!	!LO:TX:a:t=P:diminuendolike accent:problem	!
2r	.	2r	.	2r	.	(>8.ddd^<\L	.
.	.	.	.	.	.	16ccc#X\Jk	.
.	.	.	.	.	.	16eee\LL	.
.	.	.	.	.	.	16ddd\	.
.	.	.	.	.	.	16bb\	.
.	.	.	.	.	.	16gg\JJ	.
=51	=51	=51	=51	=51	=51	=51	=51
!	!	!	!	!LO:TX:a:t=P:diminuendolike accent:problem	!	!	!
2r	.	2r	.	(>8.dd^<\L	.	4ff\)	.
.	.	.	.	16cc#X\Jk	.	.	.
.	.	.	.	16ee\LL	.	4r	.
.	.	.	.	16dd\	.	.	.
.	.	.	.	16b\	.	.	.
.	.	.	.	16g\JJ	.	.	.
=52	=52	=52	=52	=52	=52	=52	=52
!LO:TX:a:t=P:w źródle notatki zapisane ołówkiem:problem	!	!	!	!	!	!	!
(>8.d^<\L	.	2r	.	4f/)	.	2r	.
16c#X\Jk	<	.	.	.	.	.	.
16e\LL	.	.	.	4r	.	.	.
16d\	.	.	.	.	.	.	.
16B\	.	.	.	.	.	.	.
16G\JJ)	[[	.	.	.	.	.	.
=53	=53	=53	=53	=53	=53	=53	=53
(>16F\LL	>	2r	.	2r	.	2r	.
16D\	.	.	.	.	.	.	.
16BB\	.	.	.	.	.	.	.
16AA\JJ	.	.	.	.	.	.	.
16.GG/LL	.	.	.	.	.	.	.
32FF/K	.	.	.	.	.	.	.
16.DD/	]	.	.	.	.	.	.
32EE/JJk)	.	.	.	.	.	.	.
!!LO:LB:g=original
=54	=54	=54	=54	=54	=54	=54	=54
*	*	*tremolo	*	*tremolo	*	*	*
!	!	!LO:TX:t=P:problem:8 kropek i łuk nad dwoma tremolo	!	!LO:TX:t=P:problem:8 kropek i łuk nad dwoma tremolo	!	!	!
16CC'>/LL	.	16E/LL	p	16G/LL	p	(<4g/	p
16C'>/	.	16E/	.	16G/	.	.	.
16C'>/	.	16E/	.	16G/	.	.	.
16C'>/JJ	.	16E/JJ	.	16G/JJ	.	.	.
*tremolo	*	*	*	*	*	*	*
!LO:TX:t=P:problem:4 kropki i łuk nad grupą szesnastek oraz nad tremolo	!	!	!	!	!	!	!
16C/LL	.	16E/LL	.	16G/LL	.	8e/L	.
16C/	.	16E/	.	16G/	.	.	.
16C/	.	16E/	.	16G/	.	8c/J)	.
16C/JJ	.	16E/JJ	.	16G/JJ	.	.	.
*	*	*	*	*Xtremolo	*	*	*
=55	=55	=55	=55	=55	=55	=55	=55
!	!	!	!	!	!	!LO:TX:a:t=P:w źródle crescendo skreślone ołówkiem:problem	!
16C/LL	.	16E/LL	<	16G/LL	<	(>8.ee\L	<
16C/	.	16E/	.	16G/	.	.	.
16C/	.	16E/	.	16G#X/	.	.	.
16C/JJ	.	16E/	.	16G#/JJ	.	16b\Jk	.
*Xtremolo	*	*	*	*	*	*	*
*	*	*	*	*tremolo	*	*	*
16C/LL	.	16E/	[ >	16A/LL	[ >	16dd\LL	[
16C/	.	16E/	.	16A/	.	16cc\	>
16C#X/	.	16E/	.	16A/	.	16e\	.
16C#/JJ	.	16E/JJ	]]	16A/JJ	]]	16a\JJ)	]]
=56	=56	=56	=56	=56	=56	=56	=56
(<4D/	.	16D/LL	.	16A/LL	.	(<4g/	.
.	.	16D/	.	16A/	.	.	.
.	.	16D/	.	16A/	.	.	.
.	.	16D/	.	16A/	.	.	.
8AA/L	.	16D/	.	16A/	.	8f/)	.
.	.	16D/	.	16A/	.	.	.
8FF/J)	.	16D/	.	16A/	.	8r	.
.	.	16D/JJ	.	16A/JJ	.	.	.
=57	=57	=57	=57	=57	=57	=57	=57
16DD/LL	.	16F/LL	<	16A/LL	<	4f/	<
16D/	.	16F/	.	16A/	.	.	.
16D/	.	16F/	.	16A/	.	.	.
16D/JJ	.	16F/	.	16A/JJ	.	.	.
*tremolo	*	*	*	*	*	*	*
16C/LL	.	16F/	.	16d/LL	.	4A-Xt>/	[[
16C/	.	16F/	.	16d/	.	.	.
16C/	.	16F/	.	16d/	.	.	.
16C/JJ	.	16F/JJ	[[	16d/JJ	[[	.	.
*	*	*Xtremolo	*	*	*	*	*
.	.	.	.	.	.	(<16qqG/LL	.
.	.	.	.	.	.	16qqA-/JJ)	.
=58	=58	=58	=58	=58	=58	=58	=58
!	!	!	!	!	!	!LO:TX:t=P:problem:mixed beam	!
16BB/LL	.	16F/LL	f	16d/LL	f	8G/L	f
16BB/	.	16F/	.	16d/	.	.	.
16BB/	.	16G/	.	16d/	.	(>[>8fff\J	.
16BB/	.	16G/JJ	.	16d/JJ	.	.	.
*	*	*tremolo	*	*	*	*	*
!	!	!LO:TX:b:Bi:t=dim_:problem:dynamics with extention lines	!	!	!	!	!
!	!	!	!LO:HP:b:Bi:t=dim:ext=ud	!	!	!	!
!	!	!	!	!LO:TX:b:Bi:t=dim_:problem:dynamics with extention lines	!	!	!
!	!	!	!	!	!LO:HP:b:Bi:t=dim:ext=ud	!	!
16BB/	.	16G/LL	>	16d/LL	>	16fff\LL]	.
16BB/	.	16G/	.	16d/	.	32eee\L	.
!	!	!	!	!	!	!LO:TX:b:Bi:t=dimin_:problem:dynamics with extention lines	!
!	!	!	!	!	!	!	!LO:HP:b:Bi:t=dimin:ext=ud
.	.	.	.	.	.	32ddd\JJJ	>
16BB/	.	16G/	.	16d/	.	32ccc#X\LLL	.
.	.	.	.	.	.	32ddd\	.
16BB/JJ	.	16G/JJ	]]	16d/JJ	]	32eee\	.
!	!	!	!	!	!	!LO:TX:a:t=P:w źródle łuk kończy się na kresce taktowej:problem	!
.	.	.	.	.	.	32ddd\JJJ)	.
*Xtremolo	*	*Xtremolo	*	*Xtremolo	*	*	*
=59	=59	=59	=59	=59	=59	=59	=59
2BB/	.	[<2G/	p	2d/	p	(>32cccn\LLL	] p
.	.	.	.	.	.	32bb\	.
.	.	.	.	.	.	32aa\	.
.	.	.	.	.	.	32gg\JJJ	.
.	.	.	.	.	.	32ff#X\LLL	.
.	.	.	.	.	.	32gg\	.
.	.	.	.	.	.	32bb\	.
.	.	.	.	.	.	32aa\JJJ	.
.	.	.	.	.	.	32gg\LLL	.
.	.	.	.	.	.	32ffn\	.
.	.	.	.	.	.	32ee\	.
.	.	.	.	.	.	32dd\JJJ	.
.	.	.	.	.	.	32cc#X\LLL	.
.	.	.	.	.	.	32dd\	.
.	.	.	.	.	.	32aao\	.
!	!	!	!	!	!	!LO:N:vis=32	!
.	.	.	.	.	.	64r	.
.	.	.	.	.	.	64gg\JJJk	.
=60	=60	=60	=60	=60	=60	=60	=60
(<4C/	.	16G/LL]	.	16c/LL	.	4ee\)	.
.	.	16G/	.	16e/	.	.	.
.	.	16G/	.	16e/	.	.	.
.	.	16G/JJ	.	16e/JJ	.	.	.
*	*	*tremolo	*	*tremolo	*	*	*
8E/L	.	16G/LL	.	16e/LL	.	4r	.
.	.	16G/	.	16e/	.	.	.
8C/J)	.	16G/	.	16e/	.	.	.
.	.	16G/JJ	.	16e/JJ	.	.	.
=61	=61	=61	=61	=61	=61	=61	=61
(>4BB/	.	16G#X/LL	.	16d/LL	.	(>4eee^<\	.
.	.	16G#/	.	16d/	.	.	.
.	.	16G#/	.	16d/	.	.	.
.	.	16G#/	.	16d/	.	.	.
4E\)	.	16G#/	.	16d/	.	8ddd\L	.
.	.	16G#/	.	16d/	.	.	.
.	.	16G#/	.	16d/	.	8bb\J	.
.	.	16G#/JJ	.	16d/JJ	.	.	.
=62	=62	=62	=62	=62	=62	=62	=62
(<4AA/	.	16A/LL	.	16c/LL	.	4aa\)	.
.	.	16A/	.	16c/	.	.	.
.	.	16A/	.	16c/	.	.	.
.	.	16A/	.	16c/	.	.	.
8C/L	.	16A/	.	16c/	.	4r	.
.	.	16A/	.	16c/	.	.	.
8AA/J)	.	16A/	.	16c/	.	.	.
.	.	16A/JJ	.	16c/JJ	.	.	.
=63	=63	=63	=63	=63	=63	=63	=63
(<4GG/	.	16B-X/LL	.	16e/LL	.	(>4ccc^<\	.
.	.	16B-/	.	16e/	.	.	.
.	.	16B-/	.	16e/	.	.	.
.	.	16B-/	.	16e/	.	.	.
4C/)	.	16B-/	.	16e/	.	8bb-X\L	.
.	.	16B-/	.	16e/	.	.	.
.	.	16B-/	.	16e/	.	8gg\J)	.
.	.	16B-/JJ	.	16e/JJ	.	.	.
=64	=64	=64	=64	=64	=64	=64	=64
2FF/	.	16A/LL	<	16f/LL	<	4ff\	<
.	.	16A/	.	16f/	.	.	.
.	.	16A/	.	16f/	.	.	.
.	.	16A/JJ	.	16f/	.	.	.
.	.	16c/LL	.	16f/	.	[>4aa\	[[
.	.	16c/	.	16f/	.	.	.
.	.	16c/	.	16f/	.	.	.
.	.	16c/JJ	.	16f/JJ	.	.	.
=65	=65	=65	=65	=65	=65	=65	=65
(>4FF#X/	.	16c/LL	[	16e-X/LL	[	4aa\]	.
.	.	16c/	.	16e-/	.	.	.
.	.	16c/	.	16e-/	.	.	.
.	.	16c/	.	16e-/	.	.	.
!	!	!	!	!	!	!LO:TX:t=P:problem:w źródle brak początku ligatury	!
8AA/L	.	16c/	>	16e-/	>	[<4f#X/	>]
.	.	16c/	.	16e-/	.	.	.
8AA-X/J)	.	16c/	.	16e-/	.	.	.
.	.	16c/JJ	]]	16e-/JJ	]]	.	.
*	*	*Xtremolo	*	*Xtremolo	*	*	*
!!LO:LB:g:original
=66	=66	=66	=66	=66	=66	=66	=66
[<2GG/	.	(>4c\	p	(>4e/	p	16f#X/LL]	p
.	.	.	.	.	.	(>16g/	.
.	.	.	.	.	.	16ee/	.
.	.	.	.	.	.	16b/JJ	.
.	.	4E/	.	4c/	.	16dd/LL	.
.	.	.	.	.	.	16cc/	.
.	.	.	.	.	.	16b/	.
.	.	.	.	.	.	16a/JJ)	.
=67	=67	=67	=67	=67	=67	=67	=67
!	!	!LO:TX:a:t=P:W źródle zakończenie łuku za nutą:problem	!	!	!	!	!
2GG/]	.	2F/)	.	2B/)	.	(>16g/LL	.
.	.	.	.	.	.	16g#X/	.
.	.	.	.	.	.	16b/	.
.	.	.	.	.	.	16a/JJ	.
!	!	!	!	!	!	!LO:TUP:a	!
.	.	.	.	.	.	24a^</LL	.
.	.	.	.	.	.	24gn/	.
.	.	.	.	.	.	24f/JJ	.
!	!	!	!	!	!	!LO:TUP:a	!
.	.	.	.	.	.	24f^</LL	.
.	.	.	.	.	.	24e/	.
.	.	.	.	.	.	24d/JJ)	.
=68	=68	=68	=68	=68	=68	=68	=68
*	*	*tremolo	*	*tremolo	*	*	*
!	!	!LO:TX:t=P:problem:4 kropki nad każdym z tremolo i łuk nad dwoma tremolo	!	!LO:TX:t=P:problem:4 kropki nad każdym z tremolo i łuk nad dwoma tremolo	!	!	!
!	!	!LO:TX:a:t=P:w źródle crescendo skreślone ołówkiem:problem	!	!	!	!	!
(>4CC/	.	16E/LL	<	16c/LL	<	4c/	.
.	.	16E/	.	16c/	.	.	.
.	.	16E/	.	16c/	.	.	.
.	.	16E/JJ	.	16c/JJ	.	.	.
*	*	*rep	*	*rep	*	*	*
8EE/L	.	16E/LL	.	16c/LL	.	4r	.
.	.	16E/	.	16c/	.	.	.
16.GG/L	.	16E/	.	16c/	.	.	.
.	.	16E/JJ	[[	16c/JJ	[[	.	.
32C/JJk)	.	.	.	.	.	.	.
*	*	*Xrep	*	*Xrep	*	*	*
=69	=69	=69	=69	=69	=69	=69	=69
!	!	!	!	!	!	!LO:TX:b:Bi:t=dol&colon;	!
(>8C#X\L	.	16F^/LL	.	16B^</LL	.	(>4gg^<\	.
.	.	16F/	.	16B/	.	.	.
8D\J	.	16F/	.	16B/	.	.	.
.	.	16F/	.	16B/	.	.	.
4GG/)	.	16F/	.	16B/	.	8ff\L	.
.	.	16F/	.	16B/	.	.	.
.	.	16F/	.	16B/	.	8dd\J)	.
.	.	16F/JJ	.	16B/JJ	.	.	.
=70	=70	=70	=70	=70	=70	=70	=70
(>4CC/	.	16E/LL	.	16c/LL	.	4cc\	.
.	.	16E/	.	16c/	.	.	.
.	.	16E/	.	16c/	.	.	.
.	.	16E/	.	16c/	.	.	.
8EE/L	.	16E/	.	16c/	.	4r	.
.	.	16E/	.	16c/	.	.	.
16.GG/L	.	16E/	.	16c/	.	.	.
.	.	16E/JJ	.	16c/JJ	.	.	.
32C/JJk)	.	.	.	.	.	.	.
=71	=71	=71	=71	=71	=71	=71	=71
(>8C#X/L	.	16F/LL	.	16B/LL	.	(>8gg\L	.
.	.	16F/	.	16B/	.	.	.
8D/J	.	16F/	.	16B/	.	16.bb^<\L	.
.	.	16F/	.	16B/	.	.	.
.	.	.	.	.	.	32aa\JJk)	.
!LO:TX:a:t=P:w źródle łuk kończy się za nutą:problem	!	!	!	!	!	!	!
!	!	!	!	!	!	!LO:TUP:a	!
4GG/)	.	16F/	.	16B/	.	(>&(>24aa^<\LL	.
.	.	.	.	.	.	24gg\	.
.	.	16F/	.	16B/	.	.	.
.	.	.	.	.	.	24ff\JJ&)	.
*	*	*	*	*	*	*Xtuplet	*
.	.	16F/	.	16B/	.	&(>24ff^<\LL	.
.	.	.	.	.	.	24ee\	.
.	.	16F/JJ	.	16B/JJ	.	.	.
!	!	!	!	!	!	!LO:TX:a:t=P:w źródle łuk kończy sie na kresce taktowej:problem	!
.	.	.	.	.	.	24dd\JJ&))	.
*	*	*	*	*	*	*tuplet	*
=72	=72	=72	=72	=72	=72	=72	=72
(<4CC/	.	16E/LL	<	16c/LL	<	4cc\)	.
.	.	16E/	.	16c/	.	.	.
.	.	16E/	.	16c/	.	.	.
.	.	16E/	.	16c/	.	.	.
8EE/L	.	16E/	.	16c/	.	4r	.
.	.	16E/	.	16c/	.	.	.
8GG/J)	.	16E/	.	16c/	.	.	.
.	.	16E/JJ	[[	16c/JJ	[[	.	.
=73	=73	=73	=73	=73	=73	=73	=73
*tremolo	*	*	*	*	*	*	*
16C\LL	.	16E/LL	f	16B-X/LL	f	(>4ccc\	f
16C\	.	16E/	.	16B-/	.	.	.
16C\	.	16E/	.	16B-/	.	.	.
16C\	.	16E/	.	16B-/	.	.	.
16C\	.	16E/	.	16B-/	.	8bb-X\L	.
16C\	.	16E/	.	16B-/	.	.	.
16C\	.	16E/	.	16B-/	.	8gg\J)	.
16C\JJ	.	16E/JJ	.	16B-/JJ	.	.	.
*Xtremolo	*	*Xtremolo	*	*Xtremolo	*	*	*
=74	=74	=74	=74	=74	=74	=74	=74
8F\	.	8F/	.	8A/	.	(>16ff\LL	.
.	.	.	.	.	.	16gg#X^<\	.
8r	.	8r	.	8r	.	16aa\	.
!	!	!	!	!	!	!LO:TX:b:Bi:t=dim_:problem:dynamics with extention lines	!
!	!	!	!	!	!	!	!LO:HP:b:Bi:t=dim:ext=ud
.	.	.	.	.	.	16ee\JJ	>
8r	.	8r	.	8r	.	16ff\LL	.
.	.	.	.	.	.	16a\	.
8FF/	p	8f\	p	8a/	p	16ee\	.
.	.	.	.	.	.	16dd\JJ)	]]
=75	=75	=75	=75	=75	=75	=75	=75
!	!	!LO:TX:a:t=P:w źródle łuk kończy się za nutą:problem	!	!	!	!	!
2GG/	.	(>16e\LL	.	(>16g/LL	.	[>4cc\	p
.	.	16f\	.	16a/	.	.	.
.	.	16e\	.	16g/	.	.	.
.	.	16e-X\JJ	.	16f#X/JJ	.	.	.
.	.	4d\)	.	4fn/)	.	32cc\LLL]	.
.	.	.	.	.	.	(>32b\	.
.	.	.	.	.	.	32aa\	.
.	.	.	.	.	.	32gg\JJJ	.
.	.	.	.	.	.	32ee\LLL	.
.	.	.	.	.	.	32ff\	.
.	.	.	.	.	.	32a\	.
.	.	.	.	.	.	32b\JJJ	.
=76	=76	=76	=76	=76	=76	=76	=76
*	*	*tremolo	*	*tremolo	*	*	*
(>4CC/	.	16c\LL	<	16e/LL	<	4cc\)	.
.	.	16c\	.	16e/	.	.	.
.	.	16c\	.	16e/	.	.	.
.	.	16c\	.	16e/JJ	.	.	.
8EE/L	.	16c\	.	16e/LL	.	4r	.
.	.	16c\	.	16e/	.	.	.
16.GG/L	.	16c\	.	16e/	.	.	.
.	.	16c\JJ	[[	16e/JJ	[[	.	.
!LO:TX:a:t=P:w źródle łuk kończy się na kresce taktowej:problem	!	!	!	!	!	!	!
32C/JJk)	.	.	.	.	.	.	.
!!LO:PB:g=original
=77	=77	=77	=77	=77	=77	=77	=77
!	!	!	!	!LO:TX:a:t=P:diminuendolike accent:problem	!	!LO:TX:a:t=P:diminuendolike accent:problem	!
!	!	!LO:TX:a:t=P:diminuendolike accent:problem	!	!	!	!	!
(<8C#X/L	.	16B^</LL	.	16f^</LL	.	(>[>4gg^<\	.
.	.	16B/	.	16f/	.	.	.
8D/J	.	16B/	.	16f/	.	.	.
.	.	16B/	.	16f/	.	.	.
4GG/)	.	16B/	.	16f/	.	32gg\LLL]	.
.	.	.	.	.	.	32ff\	.
.	.	16B/	.	16f/	.	32dd\	.
.	.	.	.	.	.	32b\JJJ	.
.	.	16B/	.	16f/	.	32g/LLL	.
.	.	.	.	.	.	32a/	.
.	.	16B/JJ	.	16f/JJ	.	32d/	.
.	.	.	.	.	.	32g/JJJ	.
=78	=78	=78	=78	=78	=78	=78	=78
(>4CC/	.	16c/LL	<	16e/LL	<	4e/)	.
.	.	16c/	.	16e/	.	.	.
.	.	16c/	.	16e/	.	.	.
.	.	16c/	.	16e/	.	.	.
8EE/L	.	16c/	.	16e/	.	4r	.
.	.	16c/	.	16e/	.	.	.
16.GG/L	.	16c/	.	16e/	.	.	.
.	.	16c/JJ	[[	16e/JJ	[[	.	.
32C/JJk	.	.	.	.	.	.	.
=79	=79	=79	=79	=79	=79	=79	=79
(>8C#X/L)	.	16B^</LL	<	16f^</LL	<	(>[>8ggg^<\L	.
.	.	16B/	.	16f/	.	.	.
8D/J	.	16B/	.	16f/	.	32ggg\LL]	.
.	.	.	.	.	.	32fff#X\	.
.	.	16B/	.	16f/	.	32fffn\	<
.	.	.	.	.	.	32eee\JJJ)	.
!LO:TX:a:t=P:W źródle łuk kończy się za nuta:problem	!	!	!	!	!	!	!
4GG/)	.	16B/	.	16f/	.	(>32ddd\LLL	.
.	.	.	.	.	.	32ccc\	.
.	.	16B/	.	16f/	.	32bb\	.
.	.	.	.	.	.	32aa\JJJ	.
.	.	16B/	.	16f/	.	32gg\LLL	.
.	.	.	.	.	.	32ff#X\	[
.	.	16B/JJ	[	16f/JJ	[	32ffn\	.
.	.	.	.	.	.	32dd\JJJ)	.
*	*	*Xtremolo	*	*	*	*	*
=80	=80	=80	=80	=80	=80	=80	=80
16CC/LL	.	16c/LL	f	16e/LL	f	4cc\	f
16C/	.	16G/	.	16e/	.	.	.
16C/	.	16G/	.	16e/	.	.	.
16C/JJ	.	16G/JJ	.	16e/	.	.	.
*tremolo	*	*tremolo	*	*	*	*	*
16C/LL	.	16G/LL	.	16e/	.	[>4eeu<\	.
16C/	.	16G/	.	16e/	.	.	.
16C/	.	16G/	.	16e/	.	.	.
16C/JJ	.	16G/JJ	.	16e/JJ	.	.	.
=81	=81	=81	=81	=81	=81	=81	=81
16BB/LL	.	16G#X/LL	.	16d/LL	.	16ee\LL]	.
16BB/	.	16G#/	.	16d/	.	(>32ee'>\L	.
.	.	.	.	.	.	32ff#X'>\JJJ	.
16BB/	.	16G#/	.	16d/	.	32gg#X'>\LLL	.
.	.	.	.	.	.	32aa'>\	.
16BB/JJ	.	16G#/JJ	.	16d/	.	32bb'>\	.
.	.	.	.	.	.	32ccc'>\JJJ	.
*	*	*Xtremolo	*	*	*	*	*
16EE/LL	.	16G#/LL	.	16d/	.	8ddd\L)	.
16EE/	.	16G#/	.	16d/	.	.	.
16EE/	.	16B/	.	16d/	.	(>8gg#\J	.
16EE/JJ	.	16B/JJ	.	16d/JJ	.	.	.
*Xtremolo	*	*	*	*Xtremolo	*	*	*
=82	=82	=82	=82	=82	=82	=82	=82
!	!	!	!	!	!	!LO:TX:b:Bi:t=cres_:problem:dynamics with extention lines	!
!	!	!	!	!	!	!	!LO:HP:b:Bi:t=cres:ext=ud
!	!	!	!	!LO:TX:b:Bi:t=cres_:problem:dynamics with extention lines	!	!	!
!	!	!	!	!	!LO:HP:b:Bi:t=cres:ext=ud	!	!
!	!	!LO:TX:b:Bi:t=cres_:problem:dynamics with extention lines	!	!	!	!	!
!	!	!	!LO:HP:b:Bi:t=cres:ext=ud	!	!	!	!
!LO:TX:t=P:problem:mixed beam	!	!	!	!	!	!	!
16FF/LL	.	16A\LL	<	16c/LL	<	8aa\)	<
16F\	.	16f\	.	16a/	.	.	.
16F\	.	16f\	.	16a/	.	(>[>4.ccc\	.
16F\JJ	.	16f\JJ	.	16a/JJ	.	.	.
*	*	*	*	*tremolo	*	*	*
16F\LL	.	16f\LL	.	16a/LL	.	.	.
16F\	.	16f\	.	16a/	.	.	.
16F#X\	.	16e-X\	.	16a/	.	.	.
16F#\JJ	.	16e-\JJ	[	16a/JJ	[	.	[
*	*	*	*	*Xtremolo	*	*	*
=83	=83	=83	=83	=83	=83	=83	=83
*	*	*tremolo	*	*	*	*	*
!	!	!	!	!	!	!LO:TX:b:Bi:t=dim_:problem:dynamics with extention lines	!
!	!	!	!	!	!	!	!LO:HP:b:Bi:t=dim:ext=ud
16G\LL	.	16e-X\LL	f	16g/LL	f	4.ccc\]	f >
16G\	.	16e-\	.	16g/	.	.	.
16A-X\	.	16e-\	.	16f#X/	.	.	.
16A-\JJ	.	16e-\JJ	.	16f#/JJ	.	.	.
*	*	*	*	*tremolo	*	*	*
*	*	*rep	*	*	*	*	*
!	!	!LO:TX:b:Bi:t=dim_:problem:dynamics with extention lines	!	!	!	!	!
!	!	!	!LO:HP:b:Bi:t=dim:ext=ud	!	!	!	!
!	!	!	!	!LO:TX:b:Bi:t=dim_:problem:dynamics with extention lines	!	!	!
!	!	!	!	!	!LO:HP:b:Bi:t=dim:ext=ud	!	!
16An\LL	.	16e-\LL	>	16g-X/LL	>	.	.
16A\	.	16e-\	.	16g-/	.	.	.
16B-X\	.	16e-\	.	16g-/	.	8bb-X\)	.
16B-\JJ	.	16e-\JJ	]	16g-/JJ	]	.	]
*	*	*Xrep	*	*	*	*	*
=84	=84	=84	=84	=84	=84	=84	=84
*tremolo	*	*	*	*	*	*	*
16c-X\LL	.	16e-X\LL	p	16g-X/LL	p	(>4aa\	p
16c-\	.	16e-\	.	16g-/	.	.	.
16c-\	.	16e-\	.	16g-/	.	.	.
16c-\JJ	.	16e-\JJ	.	16g-/JJ	.	.	.
16Bn\LL	.	16d\LL	pp	16f/LL	pp	8aa-X\L	pp
16B\	.	16d\	.	16f/	.	.	.
16B\	.	16d\	.	16f/	.	[>8gg\J	.
16B\JJ	.	16d\JJ	.	16f/JJ	.	.	.
*Xtremolo	*	*Xtremolo	*	*Xtremolo	*	*	*
=85	=85	=85	=85	=85	=85	=85	=85
4c\	.	(>8c\L	.	(>16e/KL	.	8gg\L])	.
.	.	.	.	8cc^</	.	.	.
.	.	8e\J	.	.	.	(>8gg#X\J	.
.	.	.	.	16b-X/Jk	.	.	.
4F\	.	4f\)	.	4a/)	.	16aa\LL	.
.	.	.	.	.	.	16ee\	.
.	.	.	.	.	.	16ff\	.
.	.	.	.	.	.	16dd\JJ)	.
=86	=86	=86	=86	=86	=86	=86	=86
[>4G\	.	(>16e\LL	<	(>16g/LL	<	(>4cc\	<
.	.	16d#X\	.	16f#X/	.	.	.
.	.	16f\	.	16a/	.	.	.
.	.	16e\JJ	[[	16g/JJ	[[	.	[
!LO:TX:t=P:problem:mixed beam	!	!	!	!	!	!	!
(>16G\LL]	.	4dn\)	>]]	4fn/)	>]]	4bt>\)	[ >
16A-X\	.	.	.	.	.	.	.
16G\	.	.	.	.	.	.	.
!LO:TX:a:t=P:w źródle łuk kończy się na kresce taktowej:problem	!	!	!	!	!	!	!
16GG/JJ)	.	.	.	.	.	.	.
.	.	.	.	.	.	16qqaLL/	.
.	.	.	.	.	.	16qqbJJ/	]
!!LO:LB:g=original
=87	=87	=87	=87	=87	=87	=87	=87
8C/	.	(>8c\L	p	(>8e/L	p	(>4.cc\	p
8r	.	16.d\L	.	16.f/L	.	.	.
.	.	32e\JJk	.	32g/JJk	.	.	.
4r	.	4f\)	.	4a\)	.	.	.
.	.	.	.	.	.	16.dd\LL	.
.	.	.	.	.	.	32dd#X\JJk)	.
=88	=88	=88	=88	=88	=88	=88	=88
!	!	!	!	!	!	!LO:TX:b:Bi:t=poco cres_:problem:dynamics with extention lines	!
!	!	!	!	!	!	!	!LO:HP:b:Bi:t=poco cres:ext=ud
!	!	!LO:TX:b:Bi:t=poco cres_:problem:dynamics with extention lines	!	!	!	!	!
!	!	!	!LO:HP:b:Bi:t=poco cres:ext=ud	!	!	!	!
2r	.	(>8e\L	<	(>8g#X\L	.	(>4.ee\	<
.	.	16.f#X\L	.	16.a\L	.	.	.
.	.	32g#X\JJk	.	32b\JJk	.	.	.
.	.	4a\)	.	4cc\)	.	.	.
.	.	.	.	.	.	16.ff\LL	.
.	.	.	.	.	.	32ff#X\JJk)	.
=89	=89	=89	=89	=89	=89	=89	=89
2r	.	(>8g\L	.	(>8b\L	.	(>4.gg\	.
.	.	16.a\L	.	16.cc\L	.	.	.
.	.	32b\JJk	.	32dd\JJk	.	.	.
.	.	4cc\)	.	4ee\)	.	.	.
.	.	.	.	.	.	16.aa\LL)	.
.	.	.	[	.	.	(>32aa#X\JJk	[
=90	=90	=90	=90	=90	=90	=90	=90
8r	.	8b\L	f	8dd#X\L	.	8bb\L)	f
!	!	!LO:TX:b:Bi:t=dim_:problem:dynamics with extention lines	!	!	!	!	!
!	!	!	!LO:HP:b:Bi:t=dim:ext=ud	!	!	!	!
(>8B^<\L	.	(>8d#X\J	>	(>8a\J	.	(>16.ff#X^<\L	>
.	.	.	.	.	.	32gg\JJk	.
8E\)	.	8e\L)	]	8g/L)	.	8ee\L)	.
(>&(>8G^<\J	.	(>8B\J	p	(<8f/J	.	(>16.dd^<\L	p
.	.	.	.	.	.	32ee\JJk	.
=91	=91	=91	=91	=91	=91	=91	=91
8C\L&)	.	8c\)	.	8e/)	.	8cc\)	.
16.D\L	.	8r	.	8r	.	8r	.
32E\JJk	.	.	.	.	.	.	.
4F\)	.	4A/	.	(>8c/L	.	4r	.
.	.	.	.	16.d/L	.	.	.
.	.	.	.	32d#X/JJk)	.	.	.
=92	=92	=92	=92	=92	=92	=92	=92
(>8E\L	.	(>8G#X/L	.	(>4.e/	<	4r	<
16.F#X\L	.	16.A/L	<	.	.	.	.
32G#X\JJk	.	32B/JJk	.	.	.	.	.
8.A\L)	.	8.c\L	.	.	.	8.r	.
.	.	.	.	16.f/LL	[[	.	.
16A-X\Jk	.	16e-X\Jk)	[	.	.	16c/	[[
.	.	.	.	32f#X/JJk)	.	.	.
=93	=93	=93	=93	=93	=93	=93	=93
!	!	!LO:TX:b:Bi:t=cres_:problem:dynamics with extention lines	!	!	!	!	!
!	!	!	!LO:HP:b:Bi:t=cres:ext=ud	!	!	!	!
[>4G\	.	[>4en\	f <	[>4g/	.	(<16.c/LL	f
!LO:TX:b:Bi:t=riten	!	!	!	!	!	!LO:TX:b:Bi:t=riten&colon;	!
.	.	.	.	.	.	32e/K)	.
!	!	!	!	!	!	!LO:TX:b:Bi:t=cres_:problem:dynamics with extention lines	!
!	!	!	!	!	!	!	!LO:HP:b:Bi:t=cres:ext=ud
.	.	.	.	.	.	(<16.g/	<
.	.	.	.	.	.	32cc/JJk)	.
!LO:TX:t=P:problem:mixed beam	!	!	!	!	!	!	!
(<16.G\LL]	.	(>16.e\LL]	[	(<16.g/LL]	.	(>16.ee\LL	.
32GG/K)	.	32gK 32G\)	.	32eK 32c/)	.	32gg\K)	.
(<16.GG/	.	(>16.g 16.G\	.	(<16.e 16.c/	.	(>16.ccc\	.
32GG/JJk)	.	32gJJk 32G\)	.	32eJJk 32c/)	.	32eee\JJk)	[
=94	=94	=94	=94	=94	=94	=94	=94
!LO:TX:b:Bi:t=a tempo	!	!	!	!	!	!LO:TX:b:Bi:t=a tempo	!
8GG/	.	8g 8G\	ff	8e 8c/	.	8ggg\	ff
8r	.	8r	.	8r	.	8r	.
!	!	!	!LO:DY:b:rj	!	!	!	!LO:DY:b:rj
4GG/	.	4F/	p	4r	.	(<4B/	p
=95	=95	=95	=95	=95	=95	=95	=95
[<2CC/	.	(>4E/	.	(>4c/	.	8c/)	.
.	.	.	.	.	.	8r	.
.	.	8F/L	.	8d/L	.	4r	.
.	.	8F#X/J	.	8d#X/J	.	.	.
=96	=96	=96	=96	=96	=96	=96	=96
2CC/]	.	8G/L	<	8e/	<	(>4cc\	<
.	.	8A/J	.	4.f/)	.	.	.
.	.	4B/)	.	.	.	8dd\L	.
.	.	.	[[	.	.	8dd#X\J	.
=97	=97	=97	=97	=97	=97	=97	=97
[>2C/	.	(>2c\	>]	(>8e/L	[	4ee\	[ >
.	.	.	.	8b-X/	>	.	.
.	.	.	.	8a/	.	8ff\L	.
.	.	.	.	8g/J	]]	[>8ee\J	]]
!!LO:LB:g=original
=98	=98	=98	=98	=98	=98	=98	=98
!	!	!	!	!	!	!LO:TX:t=P:problem:w źródle zakończenie ligatury i zakończenie łuku jako jeden pogrubiony łuk:problem	!
2C/_>	.	4A/	p	4f#X/	p	8ee\])	p
.	.	.	.	.	.	(>4dd\	.
!	!	!	!	!LO:TX:a:t=P:w źródle łuk kończy się na kresce taktowej:problem	!	!	!
.	.	8B/L	.	4fn/)	.	.	.
.	.	16c/L	.	.	.	16cc\LL	.
!	!	!	!	!	!	!LO:TX:a:t=P:w źródle łuk kończy się na kresce taktowej:problem	!
.	.	16d/JJ)	.	.	.	16b\JJ)	.
=99	=99	=99	=99	=99	=99	=99	=99
!	!	!	!	!	!	!LO:TX:b:Bi:t=dim_:problem:dynamics with extention lines	!
!	!	!	!	!	!	!	!LO:HP:b:Bi:t=dim:ext=ud
!	!	!	!	!LO:TX:b:Bi:t=dim_:problem:dynamics with extention lines	!	!	!
!	!	!	!	!	!LO:HP:b:Bi:t=dim:ext=ud	!	!
!	!	!LO:TX:b:Bi:t=dim_:problem:dynamics with extention lines	!	!	!	!	!
!	!	!	!LO:HP:b:Bi:t=dim:ext=ud	!	!	!	!
2C/_>	.	(>4c\	>	(>4e/	>	(>[>2cc\	>
.	.	8B\L	.	8f/L	.	.	.
.	.	8B-X\J	]	8g/J	]	.	]
=100	=100	=100	=100	=100	=100	=100	=100
2C/]	.	4A/	.	8f/L	.	8cc\L]	.
.	.	.	.	8c/J	.	16a\L	.
.	.	.	.	.	.	[>16f\JJ	.
.	.	8A-X/L	.	8B/L	.	8f/L]	.
.	.	16G/L	.	16c/L	.	16e/L	.
.	.	16F/JJ)	.	16B/JJ)	.	16d/JJ)	.
=101	=101	=101	=101	=101	=101	=101	=101
(<4C/	.	[>2G [<2E/	p	[<2c/	p	[<2c/	p
8BB/L	.	.	.	.	.	.	.
8AA/J)	.	.	.	.	.	.	.
=102	=102	=102	=102	=102	=102	=102	=102
(>8.GG/L	.	2G_> 2E/_<	.	2c/_<	.	2c/_<	.
16AA/Jk	.	.	.	.	.	.	.
16.GG/LL	.	.	.	.	.	.	.
32FF/K	.	.	.	.	.	.	.
16.DD/	.	.	.	.	.	.	.
32EE/JJk	.	.	.	.	.	.	.
=103	=103	=103	=103	=103	=103	=103	=103
[<2CC/)	.	8G] 8E/]	p	8c/]	.	8c/]	p
.	.	8r	.	8r	.	8r	.
!	!	!	!	!	!	!LO:TX:a:t=P:diminuendolike accent:problem	!
!	!	!	!	!	!	!LO:TX:b:Bi:t=poco rallen_ e dimino_:dur=5q:ext=ud:problem:text with extention lines [+ dynamics with extention lines]	!
!	!	!	!	!	!	!LO:TX:b:Bi:t=poco rallen_ e dimino_:problem:dynamics with extention lines	!
!	!	!	!	!	!	!	!LO:HP:b:Bi:t=poco rallen_ e dimino_:ext=ud
!	!	!	!	!LO:TX:b:Bi:t=poco rallen_ e dimino_:dur=5q:ext=ud:problem:text with extention lines [+ dynamics with extention lines]	!	!	!
!	!	!	!	!LO:TX:b:Bi:t=poco rallen_ e dimino_:problem:dynamics with extention lines	!	!	!
!	!	!	!	!	!LO:HP:b:Bi:t=poco rallen_ e dimino_:ext=ud	!	!
!	!	!LO:TX:b:Bi:t=poco rallen_ e dimino_:dur=5q:ext=ud:problem:text with extention lines [+ dynamics with extention lines]	!	!	!	!	!
!	!	!LO:TX:b:Bi:t=poco rallen_ e dimino_:problem:dynamics with extention lines	!	!	!	!	!
!	!	!	!LO:HP:b:Bi:t=poco rallen_ e dimino_:ext=ud	!	!	!	!
.	.	(>4F^>/	>	(<4A-X/	>	(>8d-X^</L	>
.	.	.	.	.	.	16.c/L	.
.	.	.	.	.	.	32B/JJk	.
=104	=104	=104	=104	=104	=104	=104	=104
2CC/_<	.	8E/)	.	8G/)	.	8c/)	.
.	.	8r	.	8r	.	8r	.
!	!	!	!	!	!	!LO:TX:a:t=P:diminuendolike accent:problem	!
.	.	(>4F/	.	(>4A-X/	.	(>8d-X^</L	.
.	.	.	.	.	.	16.c/L	.
.	.	.	.	.	.	32B/JJk	.
=105	=105	=105	=105	=105	=105	=105	=105
2CC/_<	.	8E/)	.	8G/)	.	8c/)	.
.	.	8r	.	8r	.	8r	.
.	.	8E/	.	8G/	.	8c/	.
.	.	8r	]]	8r	]]	8r	]]
=106	=106	=106	=106	=106	=106	=106	=106
!	!	!	!LO:DY:b:rj	!	!	!	!
2CC;>/]	.	2E;>/	pp	2G;>/	.	2c;>/	pp
==	==	==	==	==	==	==	==
*-	*-	*-	*-	*-	*-	*-	*-
!!title: @{OTL};
!!!RDF**kern: > = above
!!!RDF**kern: < = below
!!!RDF**dynam: < = "cres", fontstyle= "bold-italic"
!!!RDF**dynam: > = "dim", fontstyle= "bold-italic"
!!!RDF**kern: N = linked
!!!RDF**kern: i = editorial accidental
!!!EED: Wojciech Jakubiak-Danek
!!!EST: 2021-04-10
!!!URL-scan: http://repozytorium.nifc.pl/skany/pl-wtm-nut--r1140-1
!!!ONB-nifc: UWAGA: części Kwartetu: 1. Allegro espressivo, 2. Scherzo, 3. Adagio, 4. Finale
!!!ENC: Katarzyna Serwa
!!!END: 2021-04-09
